X:60
T:Otonabee Reel
R:Reel
C:Bruce Osborne  --  Aug.24 1993
L:1/16
M:2/4
Z:abc by Bruce Osborne - bosborne@kos.net
K:Bb
DE|F2FG FDB,C|DFBA B2AB|c2cd cAFA|gf=eg f2DE|
F2FG FDB,C|DFBA B2AB|c2cd cAFA|(3BcB AcB2:|
K:F
AB|cdcA FGAc|fgfe f2ef|gage cege|fefd c2AB|
cdcA FGAc|fgfe f2ef|gage cege|(3fgf egf2:|
